X:155
T: Little House Around the Corner
M: 6/8
L: 1/8
S: Luke O'Malley vol 1
Z: B.Black
R: jig
K: D
A | FDA, DFB | AFD EDB, | A,DF Adf | gfg e2 a/g/ |
fed AFD | EDB, DFA | dcd eag | edc d2 :|
f/g/ | afa geg | fdf ecA | dcd fed | cAc efg |
afa geg | fdf ecA | dcd eag | edc d2 :|
